wp-content/themes/xevos-cyber-theme/assets/img/prehled-skoleni/typ-skoleni.svg

<svg fill="none" height="24" viewBox="0 0 24 24" width="24" xmlns="http://www.w3.org/2000/svg" xmlns:xlink="http://www.w3.org/1999/xlink"><mask id="a" height="24" maskUnits="userSpaceOnUse" width="24" x="0" y="0"><path d="m0 0h24v24h-24z" fill="#d9d9d9"/></mask><g mask="url(#a)"><path d="m8.125 21.2125c-1.21667-.525-2.27917-1.2417-3.1875-2.15s-1.625-1.9708-2.15-3.1875-.7875-2.5125-.7875-3.8875.2625-2.66667.7875-3.875 1.24167-2.26667 2.15-3.175 1.97083-1.625 3.1875-2.15 2.5125-.7875 3.8875-.7875 2.6667.2625 3.875.7875 2.2667 1.24167 3.175 2.15 1.625 1.96667 2.15 3.175.7875 2.5.7875 3.875-.2625 2.6708-.7875 3.8875-1.2417 2.2792-2.15 3.1875-1.9667 1.625-3.175 2.15-2.5.7875-3.875.7875-2.67083-.2625-3.8875-.7875zm3.875-1.2625c.4333-.6.8083-1.225 1.125-1.875s.575-1.3417.775-2.075h-3.8c.2.7333.4583 1.425.775 2.075s.6917 1.275 1.125 1.875zm-2.6-.4c-.3-.55-.5625-1.1208-.7875-1.7125s-.4125-1.2042-.5625-1.8375h-2.95c.48333.8333 1.0875 1.5583 1.8125 2.175s1.55417 1.075 2.4875 1.375zm5.2 0c.9333-.3 1.7625-.7583 2.4875-1.375s1.3292-1.3417 1.8125-2.175h-2.95c-.15.6333-.3375 1.2458-.5625 1.8375s-.4875 1.1625-.7875 1.7125zm-10.35-5.55h3.4c-.05-.3333-.0875-.6625-.1125-.9875s-.0375-.6625-.0375-1.0125.0125-.6875.0375-1.0125.0625-.6542.1125-.9875h-3.4c-.08333.3333-.14583.6625-.1875.9875s-.0625.6625-.0625 1.0125.02083.6875.0625 1.0125.10417.6542.1875.9875zm5.4 0h4.7c.05-.3333.0875-.6625.1125-.9875s.0375-.6625.0375-1.0125-.0125-.6875-.0375-1.0125-.0625-.6542-.1125-.9875h-4.7c-.05.3333-.0875.6625-.1125.9875s-.0375.6625-.0375 1.0125.0125.6875.0375 1.0125.0625.6542.1125.9875zm6.7 0h3.4c.0833-.3333.1458-.6625.1875-.9875s.0625-.6625.0625-1.0125-.0208-.6875-.0625-1.0125-.1042-.6542-.1875-.9875h-3.4c.05.3333.0875.6625.1125.9875s.0375.6625.0375 1.0125-.0125.6875-.0375 1.0125-.0625.6542-.1125.9875zm-.4-6h2.95c-.4833-.83333-1.0875-1.55833-1.8125-2.175s-1.5542-1.075-2.4875-1.375c.3.55.5625 1.12083.7875 1.7125s.4125 1.20417.5625 1.8375zm-5.85 0h3.8c-.2-.73333-.4583-1.425-.775-2.075s-.6917-1.275-1.125-1.875c-.4333.6-.8083 1.225-1.125 1.875s-.575 1.34167-.775 2.075zm-5 0h2.95c.15-.63333.3375-1.24583.5625-1.8375s.4875-1.1625.7875-1.7125c-.93333.3-1.7625.75833-2.4875 1.375s-1.32917 1.34167-1.8125 2.175z" fill="#0bf"/></g></svg>

<svg width="24" height="24" viewBox="0 0 24 24" fill="none" xmlns="http://www.w3.org/2000/svg">
<mask id="mask0_597_17160" style="mask-type:alpha" maskUnits="userSpaceOnUse" x="0" y="0" width="24" height="24">
<rect width="24" height="24" fill="#D9D9D9"/>
</mask>
<g mask="url(#mask0_597_17160)">
<path d="M8.125 21.2125C6.90833 20.6875 5.84583 19.9708 4.9375 19.0625C4.02917 18.1542 3.3125 17.0917 2.7875 15.875C2.2625 14.6583 2 13.3625 2 11.9875C2 10.6125 2.2625 9.32083 2.7875 8.1125C3.3125 6.90417 4.02917 5.84583 4.9375 4.9375C5.84583 4.02917 6.90833 3.3125 8.125 2.7875C9.34167 2.2625 10.6375 2 12.0125 2C13.3875 2 14.6792 2.2625 15.8875 2.7875C17.0958 3.3125 18.1542 4.02917 19.0625 4.9375C19.9708 5.84583 20.6875 6.90417 21.2125 8.1125C21.7375 9.32083 22 10.6125 22 11.9875C22 13.3625 21.7375 14.6583 21.2125 15.875C20.6875 17.0917 19.9708 18.1542 19.0625 19.0625C18.1542 19.9708 17.0958 20.6875 15.8875 21.2125C14.6792 21.7375 13.3875 22 12.0125 22C10.6375 22 9.34167 21.7375 8.125 21.2125ZM12 19.95C12.4333 19.35 12.8083 18.725 13.125 18.075C13.4417 17.425 13.7 16.7333 13.9 16H10.1C10.3 16.7333 10.5583 17.425 10.875 18.075C11.1917 18.725 11.5667 19.35 12 19.95ZM9.4 19.55C9.1 19 8.8375 18.4292 8.6125 17.8375C8.3875 17.2458 8.2 16.6333 8.05 16H5.1C5.58333 16.8333 6.1875 17.5583 6.9125 18.175C7.6375 18.7917 8.46667 19.25 9.4 19.55ZM14.6 19.55C15.5333 19.25 16.3625 18.7917 17.0875 18.175C17.8125 17.5583 18.4167 16.8333 18.9 16H15.95C15.8 16.6333 15.6125 17.2458 15.3875 17.8375C15.1625 18.4292 14.9 19 14.6 19.55ZM4.25 14H7.65C7.6 13.6667 7.5625 13.3375 7.5375 13.0125C7.5125 12.6875 7.5 12.35 7.5 12C7.5 11.65 7.5125 11.3125 7.5375 10.9875C7.5625 10.6625 7.6 10.3333 7.65 10H4.25C4.16667 10.3333 4.10417 10.6625 4.0625 10.9875C4.02083 11.3125 4 11.65 4 12C4 12.35 4.02083 12.6875 4.0625 13.0125C4.10417 13.3375 4.16667 13.6667 4.25 14ZM9.65 14H14.35C14.4 13.6667 14.4375 13.3375 14.4625 13.0125C14.4875 12.6875 14.5 12.35 14.5 12C14.5 11.65 14.4875 11.3125 14.4625 10.9875C14.4375 10.6625 14.4 10.3333 14.35 10H9.65C9.6 10.3333 9.5625 10.6625 9.5375 10.9875C9.5125 11.3125 9.5 11.65 9.5 12C9.5 12.35 9.5125 12.6875 9.5375 13.0125C9.5625 13.3375 9.6 13.6667 9.65 14ZM16.35 14H19.75C19.8333 13.6667 19.8958 13.3375 19.9375 13.0125C19.9792 12.6875 20 12.35 20 12C20 11.65 19.9792 11.3125 19.9375 10.9875C19.8958 10.6625 19.8333 10.3333 19.75 10H16.35C16.4 10.3333 16.4375 10.6625 16.4625 10.9875C16.4875 11.3125 16.5 11.65 16.5 12C16.5 12.35 16.4875 12.6875 16.4625 13.0125C16.4375 13.3375 16.4 13.6667 16.35 14ZM15.95 8H18.9C18.4167 7.16667 17.8125 6.44167 17.0875 5.825C16.3625 5.20833 15.5333 4.75 14.6 4.45C14.9 5 15.1625 5.57083 15.3875 6.1625C15.6125 6.75417 15.8 7.36667 15.95 8ZM10.1 8H13.9C13.7 7.26667 13.4417 6.575 13.125 5.925C12.8083 5.275 12.4333 4.65 12 4.05C11.5667 4.65 11.1917 5.275 10.875 5.925C10.5583 6.575 10.3 7.26667 10.1 8ZM5.1 8H8.05C8.2 7.36667 8.3875 6.75417 8.6125 6.1625C8.8375 5.57083 9.1 5 9.4 4.45C8.46667 4.75 7.6375 5.20833 6.9125 5.825C6.1875 6.44167 5.58333 7.16667 5.1 8Z" fill="#00BBFF"/>
</g>
</svg>
